X:1
T:Belfield, CM
T:Belfield, CM
T:William Wallace Gilchrist, 1895
T:Public Domain Courtesy of the Cyber Hymnal™
C:William Wallace Gilchrist, 1895
Z:Public Domain
Z:Courtesy of the Cyber Hymnal™
%%score ( 1 2 ) ( 3 4 )
L:1/8
Q:1/4=113
M:4/4
K:G
V:1 treble 
V:2 treble 
V:3 bass 
V:4 bass 
V:1
 [Dd]2 | [DB]2 [DA]2 [DG]2 D2 | [B,G]2 [DA]2 [DB]2 [Ee]2 | [Ec]2 [EB]2 [EA]2 [EG]2 | %4
 (G4 F2) [Dd]2 | [DB]2 [DA]2 [DG]2 [Ee]2 | [Ac]2 [GB]2 [FA]2 [Dd]2 | [DB]2 [EG]2 [A,D]2 [CA]2 | %8
 [B,G]6 |] %9
V:2
 x2 | x6 D2 | x8 | x8 | D6 x2 | x8 | x8 | x8 | x6 |] %9
V:3
 [B,,G,]2 | [D,G,]2 C2 [G,B,]2 [F,A,]2 | [E,G,]2 [D,F,]2 G,2 [E,^G,]2 | %3
 [A,,A,]2 [B,,D]2 [C,C]2 [^C,B,]2 | (B,4 A,2) [B,,G,]2 | [D,G,]2 C2 [G,B,]2 [G,,B,]2 | %6
 [A,,C]2 E2 [D,A,]2 A,2 | G,2 [C,G,]2 [D,G,]2 [D,F,]2 | [G,,G,]6 |] %9
V:4
 x2 | x2 (E,F,) x4 | x4 ^G,2 x2 | x8 | D,6 x2 | x2 (E,F,) x4 | x2 (B,,C,) x (E,F,) x | G,2 x6 | %8
 x6 |] %9

